!!!OTL: Ahabra
!!!ONR: No. 15
!! From Jaap Kunst "Music in New Guinea; Three Studies"
!! Verhandelingen van het Koninkluijk Instituut voor Taal-,
!! Land- end Volkenkunde, Deel 53
!! English translation and correction by Jeune Scott-Kemball
!! Publication Place: 'S-Gravenhage
!! Publisher: Martinus Nijhoff, 1967
!! From Chapter II: Songs of New Guinea, page 93
!!PLACE: Pacifica, New Guinea, Humboldt Bay
!!SINGER: Poreo
!!!PSX: M
!!!ENCODER: D. Huron
!! Expanded according to notated variant.
**kern
*clefF4
*k[b-]
*M2/4
*>1st strophe
=1-
8G
8A
8c
8c
=2
*M4/4
4c
4G
4c
8G
8B
=3
*M2/4
8A
8A
8F
8F
=4
*M4/4
4F
4C
4.F
8G
=5
4E
8E
8E
4E
8G
8E
=6
*M2/4
4F
4C
=7
*M3/4
8E
8E
4E
8F
8E
=8
4E
4rX
*>2nd strophe
8G
8A
8c
8c
=9
*M4/4
4B
4G
4c
8G
8B
=10
*M2/4
8G
8G
8G
8G
=11
*M4/4
4F
4C
4.F
8G
=12
4E
8E
8E
4E
8G
8E
=13
*M2/4
4F
4C
=14
*M3/4
8E
8E
4E
8F
8E
=15
4E
==|!
*-
